/* XPM */
static char *e4a21616c5c14756a7e87da98d160cdbkiTXfu3SoaIVR8na[] = {
/* columns rows colors chars-per-pixel */
"64 64 9 1 ",
"  c None",
". c #4B201C",
"X c #4A4D54",
"o c #69717A",
"O c #A58025",
"+ c #D2C23D",
"@ c #94999F",
"# c #A8AEBD",
"$ c white",
/* pixels */
"                                                                ",
"                                                                ",
"                                                                ",
"                                                                ",
"                                                                ",
"                                                                ",
"                                                                ",
"                                                                ",
"                                                                ",
"                                                                ",
"                                                                ",
"                                                                ",
"                                                                ",
"                                                                ",
"                                                                ",
"                                                                ",
"                                                                ",
"                                     ooo                        ",
"                                   oo@@@o                       ",
"                                 oo@@@@@@o                      ",
"                               oo@@@@@@@ooo                     ",
"                             oo@@XX@@@oo@@o                     ",
"                           ++@@XX@@@oo@@@@+                     ",
"                         oo+++X@@@oo@@@@+++                     ",
"                       oo@@@+++@oo@@@@++++o                     ",
"                     oo@@@@@@+++@@@@++++@@o                     ",
"                    XX@@@@@@oo++@@++++@@@@o                     ",
"                    XoX@@@oo@@++++$$@@@@##o                     ",
"                    OooXoo@@@@++$$$$@@##@@o                     ",
"                    OOoX@@@@+++$$$$$##@@@@o                     ",
"                    XOOX@@+++++$.$$$@@@@@@o                     ",
"                    XoOO++++@@+$$$$$@@@@@@o                     ",
"                    XooO++@@@@+$$$$$@@@@##o                     ",
"                    XooX@@@@##+$$$$$@@##@@o                     ",
"                    XooX@@##@@+$$$@@##@@@@o                     ",
"                    XooX##@@@@+$@@##@@@@oo                      ",
"                    XooX@@@@@@++##@@@@oo                        ",
"                    XooX@@@@@@++@@@@oo                          ",
"                    XooX@@@@##++@@oo                            ",
"                    XooX@@##@@++oo                              ",
"                    XooX##@@@@++                                ",
"                     XoX@@@@oo                                  ",
"                      XX@@oo                                    ",
"                       Xoo                                      ",
"                                                                ",
"                                                                ",
"                                                                ",
"                                                                ",
"                                                                ",
"                                                                ",
"                                                                ",
"                                                                ",
"                                                                ",
"                                                                ",
"                                                                ",
"                                                                ",
"                                                                ",
"                                                                ",
"                                                                ",
"                                                                ",
"                                                                ",
"                                                                ",
"                                                                ",
"                                                                "
};
