/* XPM */
static char *ec772b15722647bc97da6f8f5812057dbPFCnRZctANBdhzQ[] = {
/* columns rows colors chars-per-pixel */
"64 64 27 1 ",
"  c None",
". c black",
"X c #070F17",
"o c #281F19",
"O c #142233",
"+ c #4B201C",
"@ c #2F4157",
"# c #4E5F73",
"$ c #B16D21",
"% c #987174",
"& c #A07879",
"* c #A37A7B",
"= c #BDA158",
"- c #C6A27F",
"; c #2F3699",
": c #B4B4B4",
"> c #C9A582",
", c #CEA886",
"< c #D1AA88",
"1 c #EDC39A",
"2 c #EEC39A",
"3 c #EDC29C",
"4 c #F1C394",
"5 c #F1C395",
"6 c #F6CA9F",
"7 c #F8CCA1",
"8 c #9B86C2",
/* pixels */
"                                                                ",
"                                                                ",
"                                                                ",
"                              ooooo                             ",
"                           oooooooooo                           ",
"                           oooooooooo                           ",
"                          ooooooo7ooo                           ",
"                          oooo-oo2>oo                           ",
"                          oo**.444.                             ",
"                          oo%%22223                             ",
"                           ooo,222<                             ",
"                          XXXXXXX6XXX                           ",
"                        OOOOOOXXX*XOOO                          ",
"                        OO@@OOOOOOOOOO                          ",
"                        OO@@@@@@@@@@@O                          ",
"                       ...@@##@@@##@@OO                         ",
"                       O..O@@@###@@@@OO                         ",
"                      OO...O@@@@@@OOOO...                       ",
"                      O@@@.OOOOOOOO@@@.OO         ...           ",
"                      O@@@.@OO@@@@O@@..OOO       ....           ",
"                    OOO@@@..$$===$O:::@@@O    .......           ",
"                    OO+@@@O$=====$:::.@@@OO   .....             ",
"                   O+++@@@$=$$$$$$$OO.@@@@OOOOO@@.              ",
"                   O++@@$$$$$$$$$$$OO..@@@@@@@@@@.              ",
"                  OO++@@$$$$$$$$$$@@@@OOO@@@@@OOO.              ",
"                  O+@@@O$$$$$$$$$O@@@@ OOO@@@OO                 ",
"                  O+@@@O  $$$$OOOOOOO8   OOOOO                  ",
"                  O+@@@O  OO@@@@@@@OO;8                         ",
"                  O+@@OO  OO@@@OO@@@@O;                         ",
"                  ..... OOO@@@@OO@@@@@8;;                       ",
"                ....... OO:.@@@@@@@@@@O88                       ",
"                ....    OO@@..@@@@@@@@:;;8                      ",
"                ....    OO@@..@@@@@@@@:;;8                      ",
"                ...    OOO@@...@@@@@@..  ;                      ",
"                       O@@@@@@...@@...@                         ",
"                       O@@@@OO@..@...@@                         ",
"                       .......@....@@@@                         ",
"                       .@@@@..........@                         ",
"                       O@@@@@@@...O@@@.                         ",
"                      OO@@@@@@@OOO@@@@                          ",
"                      OO@@@@...OO@@...                          ",
"                      O@@@@....OO@....                          ",
"                      O@@@.....OO.....                          ",
"                      O@@@.....OO.....                          ",
"                      O@@@@....OO@....                          ",
"                    OO@@@@@O@@ OO@@@@@                          ",
"                    OO@@@@@@@@ OO@@@@@                          ",
"                    OO@@@@@@@@ OO@@@@@                          ",
"                    OO@@@@#@@@ OO@@@@@@                         ",
"                    OO@@###@   OOO@@@@@                         ",
"                    OO@@##@@   OOO@##@@                         ",
"                    OO@@##@@  OOO@@##@@                         ",
"                    OO@@@@@@  O@@@#@@@@                         ",
"                    OOO@@@@@  O@@@#@@@                          ",
"                    OOO@@@@@  O@@@@@@@                          ",
"                    OOO@@@@@  OOO@@@@                           ",
"                      O@@@@    OO@@@@                           ",
"                      OO@@@    OOO@@@                           ",
"                       ....      ....                           ",
"                      ......   .......                          ",
"                      ........ ........                         ",
"                                                                ",
"                                                                ",
"                                                                "
};
