/* XPM */
static char *_63f0fe4c72c489692a808173210af5cJJC6IBNDeKzPAyqk[] = {
/* columns rows colors chars-per-pixel */
"64 64 12 1 ",
"  c #4B201C",
". c #656C17",
"X c #72751B",
"o c #787B21",
"O c #4A4D54",
"+ c #69717A",
"@ c #7F8226",
"# c #A58025",
"$ c #D2C23D",
"% c #94999F",
"& c #A8AEBD",
"* c white",
/* pixels */
"XXXXXXXXXXXXXXXXXXXXXXXXXXXXXXXXXXXXXXXXXXXXXXXXXXXXXXXXXXXXXXXX",
"XXXXXXXXXXXXXXXXXXXXXXXXXXXXXXXXXXXXXXXXXXXXXXXXXXXXXXXXXXXXXXXX",
"XXXXXXXXXXXXXXXXXXXXXXXXXXXXXXXXXXXXXXXXXXXXXXXXXXXXXXXXXXXXXXXX",
"XXXXXXXXXXXXXXXXXXXXXXXXXXXXXXXXXXXXXXXXXXXXXXXXXXXXXXXXXXXXXXXX",
"XXXXXXXXXXXXXXXXXXXXXXXXXXXXXXXXXXXXXXXXXXXXXXXXXXXXXXXXXXXXXXXX",
"XXXXXXXXXXXXXXXXXXXXXXXXXXXXXXXXXXXXXXXXXXXXXXXXXXXXXXXXXXXXXXXX",
"XXXXXXXXXXXXXXXXXXXXXXXXXXXXXXXXXXXXXXXXXXXXXXXXXXXXXXXXXXXXXXXX",
"XXXXXXXXXXXXXXXXXXXXXXXXXXXXXXXXXXXXXXXX@XXXXXXXXXXXXXXXXXXXXXXX",
"XXXXXXXXXXXXXXXXXXXXXXXXXXXXXXXXXXXXXXXXooXXXXXXXXXXXXXXXXXXXXXX",
"XXXXXXXXXXXXXXXXXXXXXXXXXXXXXXXXXXXX@@oX.oXXXXXXXXXXXXXXXXXXXXXX",
"XXXXXXXXXXXXXXXXXXXXXXXXXXXXXXXXXXXXX@oo..X@@oXXXXXXXXXXXXXXXXXX",
"XXXXXXXXXXXXXXXXXXXXXXXXXXXXXXXXXXo@X.ooX.oo@XXXXXXXXXXXXXXXXXXX",
"XXXXXXXXXXXXXXXXXXXXXXXXXXXXXXXXXXX@oo.oXoooXXXXXXXXXXXXXXXXXXXX",
"XXXXXXXXXXXXXXXXXXXXXXXXXXXXXXXXXXX.ooX..oo.XXXXXXXXXXXXXXXXXXXX",
"XXXXXXXXXXXXXXXXXXXXXXXXXXXXXXXXXXXX.oXX...XXXXXXXXXXXXXXXXXXXXX",
"XXXXXXXXXXXXXXXXXXXXXXXXXXXXXXXXXXXXX.XooXXXXXXXXXXXXXXXXXXXXXXX",
"XXXXXXXXXXXXXXXXXXXXXXXXXXXXXXXXXXXXXXX@.XXXXXXXXXXXXXXXXXXXXXXX",
"XXXXXXXXXXXXXXXXXXXXXXXXXXXXXXXXXXXXX+++XXXXXXXXXXXXXXXXXXXXXXXX",
"XXXXXXXXXXXXXXXXXXXXXXXXXXXXXXXXXXX++%%%+XXXXXXXXXXXXXXXXXXXXXXX",
"XXXXXXXXXXXXXXXXXXXXXXXXXXXXXXXXX++%%%%%%+XXXXXXXXXXXXXXXXXXXXXX",
"XXXXXXXXXXXXXXXXXXXXXXXXXXXXXXX++%%%%%%%+++XXXXXXXXXXXXXXXXXXXXX",
"XXXXXXXXXXXXXXXXXXXXXXXXXXXXX++%%OO%%%++%%+XXXXXXXXXXXXXXXXXXXXX",
"XXXXXXXXXXXXXXXXXXXXXXXXXXX$$%%OO%%%++%%%%$XXXXXXXXXXXXXXXXXXXXX",
"XXXXXXXXXXXXXXXXXXXXXXXXX++$$$O%%%++%%%%$$$XXXXXXXXXXXXXXXXXXXXX",
"XXXXXXXXXXXXXXXXXXXXXXX++%%%$$$%++%%%%$$$$+XXXXXXXXXXXXXXXXXXXXX",
"XXXXXXXXXXXXXXXXXXXXX++%%%%%%$$$%%%%$$$$%%+XXXXXXXXXXXXXXXXXXXXX",
"XXXXXXXXXXXXXXXXXXXXOO%%%%%%++$$%%$$$$%%%%+XXXXXXXXXXXXXXXXXXXXX",
"XXXXXXXXXXXXXXXXXXXXO+O%%%++%%$$$$**%%%%&&+XXXXXXXXXXXXXXXXXXXXX",
"XXXXXXXXXXXXXXXXXXXX#++O++%%%%$$****%%&&%%+XXXXXXXXXXXXXXXXXXXXX",
"XXXXXXXXXXXXXXXXXXXX##+O%%%%$$$*****&&%%%%+XXXXXXXXXXXXXXXXXXXXX",
"XXXXXXXXXXXXXXXXXXXXO##O%%$$$$$* ***%%%%%%+XXXXXXXXXXXXXXXXXXXXX",
"XXXXXXXXXXXXXXXXXXXXO+##$$$$%%$*****%%%%%%+XXXXXXXXXXXXXXXXXXXXX",
"XXXXXXXXXXXXXXXXXXXXO++#$$%%%%$*****%%%%&&+XXXXXXXXXXXXXXXXXXXXX",
"XXXXXXXXXXXXXXXXXXXXO++O%%%%&&$*****%%&&%%+XXXXXXXXXXXXXXXXXXXXX",
"XXXXXXXXXXXXXXXXXXXXO++O%%&&%%$***%%&&%%%%+XXXXXXXXXXXXXXXXXXXXX",
"XXXXXXXXXXXXXXXXXXXXO++O&&%%%%$*%%&&%%%%++XXXXXXXXXXXXXXXXXXXXXX",
"XXXXXXXXXXXXXXXXXXXXO++O%%%%%%$$&&%%%%++XXXXXXXXXXXXXXXXXXXXXXXX",
"XXXXXXXXXXXXXXXXXXXXO++O%%%%%%$$%%%%++XXXXXXXXXXXXXXXXXXXXXXXXXX",
"XXXXXXXXXXXXXXXXXXXXO++O%%%%&&$$%%++XXXXXXXXXXXXXXXXXXXXXXXXXXXX",
"XXXXXXXXXXXXXXXXXXXXO++O%%&&%%$$++XXXXXXXXXXXXXXXXXXXXXXXXXXXXXX",
"XXXXXXXXXXXXXXXXXXXXO++O&&%%%%$$XXXXXXXXXXXXXXXXXXXXXXXXX@XXXXXX",
"XXXXXXXXXXXXXXXXXXXXXO+O%%%%++XXXXXXXXXXXXXXXXXXXXXX@@oXXooXXXXX",
"XXXXXXXXXXXXXXXXXXXXXXOO%%++XXXXXXXXXXXXXXXXXXXXXXXXX@ooX.oXX@XX",
"XXXXXXXXXXXXXXXXXXXXXXXO++XXXXXXXXXXXXXXXXXXXXXXXXXXX.ooo.Xoo.XX",
"XXXXXXXXXXX@XXXXXXXXXXXXXXXXXXXXXXXXXXXXXXXXXXXXXXXX@o.ooXXoo.XX",
"XXXXXX@@oXXooXXXXXXXXXXXXXXXXXXXXXXXXXXXXXXXXXXXXXXX.oo.oXX..XXX",
"XXXXXXX@ooX.oXX@XXXXXXXXXXXXXXXXXXXXXXXXXXXXXXXXXXXXX.o..XXXXXXX",
"XXXXXXX.ooo.Xoo.XXXXXXXXXXXXXXXXXXXXXXXXXXXXXXXXXXXXXXXXXXXXXXXX",
"XXXXXX@o.ooXXoo.XXXXXXXXXXXXXXXXXXXXXXXXXXXXXXXXXXXXXXXXXXXXXXXX",
"XXXXXX.oo.oXX..XXXXXXXXXXXXXXXXXXXXXXXXXXXXXXXXXXXXXXXXXXXXXXXXX",
"XXXXXXX.o..XXXXXXXXXXXXXXXXXXXXXXXXXXXXXXXXXXXXXXXXXXXXXXXXXXXXX",
"XXXXXXXXXXXXXXXXXXXXXXXXXXXXXXXXXXXXXXXXXXXXXXXXXXXXXXXXXXXXXXXX",
"XXXXXXXXXXXXXXXXXXXXXXXXXXXXXXXXXXXXXXXXXXXXXXXXXXXXXXXXXXXXXXXX",
"XXXXXXXXXXXXXXXXXXXXXXXXXXXXXXXXXXXXXXXXXXXXXXXXXXXXXXXXXXXXXXXX",
"XXXXXXXXXXXXXXXXXXXXXXXXXXXXXXXXXXXXXXXXXXXXXXXXXXXXXXXXXXXXXXXX",
"XXXXXXXXXXXXXXXXXXXXXXXXXXXXXXXXXXXXXXXXXXXXXXXXXXXXXXXXXXXXXXXX",
"XXXXXXXXXXXXXXXXXXXXXXXXXXXXXXXXXXXXXXXXXXXXXXXXXXXXXXXXXXXXXXXX",
"XXXXXXXXXXXXXXXXXXXXXXXXXXXXXXXXXXXXX@@XXXXXXXXXXXXXXXXXXXXXXXXX",
"XXXXXXXXXXXXXXXXXXXXXXXXXXXXXXXXXXXXXX@ooXXX@@XXXXXXXXXXXXXXXXXX",
"XXXXXXXXXXXXXXXXXXXXXXXXXXXXXXXXXXXXXX.ooXXo@XXXXXXXXXXXXXXXXXXX",
"XXXXXXXXXXXXXXXXXXXXXXXXXXXXXXXXXXXXXXX..XoooXXXXXXXXXXXXXXXXXXX",
"XXXXXXXXXXXXXXXXXXXXXXXXXXXXXXXXXXXXXXXXXXoo.XXXXXXXXXXXXXXXXXXX",
"XXXXXXXXXXXXXXXXXXXXXXXXXXXXXXXXXXXXXXXXXX..XXXXXXXXXXXXXXXXXXXX",
"XXXXXXXXXXXXXXXXXXXXXXXXXXXXXXXXXXXXXXXXXXXXXXXXXXXXXXXXXXXXXXXX"
};
