/* XPM */
static char *_dcad65c9e1640a5f55f956f6801612amJPDlu4TcI2Lvf9t[] = {
/* columns rows colors chars-per-pixel */
"64 64 13 1 ",
"  c black",
". c #20282A",
"X c #263133",
"o c #656C17",
"O c #72751B",
"+ c #787B21",
"@ c #2D4148",
"# c #70767D",
"$ c #7F8226",
"% c #94999F",
"& c #A3A6A6",
"* c #E0DDD1",
"= c #F2F2F0",
/* pixels */
"OOOOOOOOOOOOOOOOOOOOOOOOOOOOOOOOOOOOOOOOOOOOOOOOOOOOOOOOOOOOOOOO",
"OOOOOOOOOOOOOOOOOOOOOOOOOOOOOOOOOOOOOOOOOOOOOOOOOOOOOOOOOOOOOOOO",
"OOOO========OOOOOOOOOOOOOOOOOOOOOOOOOOOOOOOOOOOOOOOOOOOOOOOOOOOO",
"OOO#%*****O====OOOOOOOOOOOOOOOOOOOOOOOOOOOOOOOOOOOOOOOOOOOOOOOOO",
"OOO#%%%O*&&**O==OOOOOOOOOOOOOOOOOOOOOOOOOOOOOOOOOOOOOOOOOOOOOOOO",
"OOO#%%%%%*&&***===OOOOOOOOOOOOOOOOOOOOOOOOOOOOOOOOOOOOOOOOOOOOOO",
"OOO#%%%%%%**&&**O==OOOOOOOOOOOOOOOOOOOOOOOOOOOOOOOOOOOOOOOOOOOOO",
"OOO#%%%%%&%%*&&***==OOOOOOOOOOOOOOOOOOOO$OOOOOOOOOOOOOOOOOOOOOOO",
"OOO#%%%%%%&%%*&&%**===OOOOOOOOOOOOOOOOOO++OOOOOOOOOOOOOOOOOOOOOO",
"OOO#%%%%&%%&%%*&&&***==OOOOOOOOOOOOO$$+Oo+OOOOOOOOOOOOOOOOOOOOOO",
"OOO#%%%%%%&%%&%%**&O**==OOOOOOOOOOOOO$++ooO$$+OOOOOOOOOOOOOOOOOO",
"OOO#%%&%%%%&%%%%&**&O**==OOOOOOOOO+$Oo++Oo++$OOOOOOOOOOOOOOOOOOO",
"OOO#%%%&%%%%&&&%%%&*&***===OOOOOOOO$++o+O+++OOOOOOOOOOOOOOOOOOOO",
"OOO#%%&%&&%%%&&&%%%*******==OOOOOOOo++Ooo++oOOOOOOOOOOOOOOOOOOOO",
"OOO#%%&&%&&%%%&&&%%%&**&****==OOOOOOo+OOoooOOOOOOOOOOOOOOOOOOOOO",
"OOO#%%%%%%&&%%%&%&%%%&&*&****==OOOOOOoO++OOOOOOOOOOOOOOOOOOOOOOO",
"OOO#%%&%%&%%&&&%%&&%**%%*******==OOOOOO$oOOOOOOOOOOOOOOOOOOOOOOO",
"OOO#%&%&&&&%%%&&&%&&%*%%%**&****==OOOOOoOOOOOOOOOOOOOOOOOOOOOOOO",
"OOO#%%&&%%&&&%%%&%%&&&**%&&*%****==OOOOOOOOOOOOOOOOOOOOOOOOOOOOO",
"OOO#%%&&%%%%%&%%%&&%&&&*%%%&**%***==OOOOOOOOOOOOOOOOOOOOOOOOOOOO",
"OOO#%%%&&&%%%&&%&%&&%&&&***%%&*%***==OOOOOOOOOOOOOOOOOOOOOOOOOOO",
"OOO#%%%%%%&&%%%%%%%%&%%&&%**&%**%***===OOOOOOOOOOOOOOOOOOOOOOOOO",
"OOO#%%%%%%%%&&%%&%%%%&%%&&%**%%***&**===OOOOOOOOOOOOOOOOOOOOOOOO",
"OOO#%%%%%%%%%%&&%...%%%%%%%%*%%%*%*&***==OOOOOOOOOOOOOOOOOOOOOOO",
"OOO#%%%%%%%%%%&&..&%%&&%%%%&%**%%%*****==OOOOOOOOOOOOOOOOOOOOOOO",
"OOO#%%%%%%%%%%%%.&...%.%%%%%&%&*%%*%****===OOOOOOOOOOOOOOOOOOOOO",
"OOO#%%%%%%%%%%%..%%%%...%&%&%%%%*%%%%&&**==OOOOOOOOOOOOOOOOOOOOO",
"OOO#%%%%%%%%%%%%%.%%..&&%%&%%&&%%*%%*%&&**==OOOOOOOOOOOOOOOOOOOO",
"OOO##%%%%%%%%%%%%%%%.&.&.%.&%%&%%&*%**%&***=OOOOOOOOOOOOOOOOOOOO",
"OOO.#####%%%%%%%%%%%%%.%&&..&&%&%%%**%**&**==OOOOOOOOOOOOOOOOOOO",
"OOO....##%%%%%%%%%%%%%.%%%.&%.&%%&%%%*%*&***===OOOOOOOOOOOOOOOOO",
"OOOO....#%%%%%%%%%%%%%%%%.%%&..%%%&%%%*%*&&**====OOOOOOOOOOOOOOO",
"OOOO....####%%%%%%%%%%%%..%%.&&.%%&&*%&*%******==OOOOOOOOOOOOOOO",
"OOOO.......####%%%%%%%%%&.%.%%&.%&%&&%***%******=OOOOOOOOOOOOOOO",
"OOOOOO.@@@....###%%%%%%%%&&..%.&&...%&&*&*******=====OOOOOOOOOOO",
"OOOOOO..@@@@...###%%%%%%%%&&.%.%.&&.%%&&&&*&**&*****==OOOOOOOOOO",
"OOOOOOO...@@@@...#%%%%%%%%%&&%%%%%.&%.%%&&&***%&*****=OOOOOOOOOO",
"OOOOOOO...@@@@...###%%%%%%%%&&%%.%.&%...%%&&*********=OOOOOOOOOO",
"OOOOOOOO...@@@@X...###%%%%%%%%&%%%.%..%%.%%&&&&**%******OOOOOOOO",
"OOOOOOOOOO.@@@@XX....###%%%%%%%&&%%.%&.%%%&%%&&&&*******OOOOOOOO",
"OOOOOOOOOOO.@@@@XXXX....#%%%%%%%%&%..%%&%...%%%&&&***%%%#$OOOOOO",
"OOOOOOOOOOO.@@@@XXXX....#%%%%%%%%&&%%..&&.%%.%%%&&&%**%%#++OOOOO",
"OOOOOOOOOOO.@@@@@XXXXXX..###%%%%%%%&%%%.%&.%%%%%&&&&&*%%%#+OO$OO",
"OOOOOOOOOOOO..@@@@@XXXXXX...#%%%%%%%&%%%...&%%%%%&&&&%%%%#O++oOO",
"OOOOOOOOOOO$OO.@@@@@XXXXXXX..#%%%%%%%&%%%%%%%&%&%%%%&&%%%#O++oOO",
"OOOOOO$$+OO++O.@@@@@XXXXXXX..####%%%%&&%%%%%%&&%%%%%%&&%%#OooOOO",
"OOOOOOO$++Oo+O..@@@@@XXXXXXXX...#%%%%%%%%%%%%%%&%&%%%%&&%#OOOOOO",
"OOOOOOOo+++oO++.@@@@@XXXXXXXXXX..####%%%%%%%%%%%%&&&%%%&%#OOOOOO",
"OOOOOO$+o++OO++o.@@@@@@XXXXXXXXX....##%%%%%%%%%%%%%&&%%%%#OOOOOO",
"OOOOOOo++o+OOooOO..@@@@@XXXXXXXXXXX..#%%%%%%%%%%%%%%&&&%%###OOOO",
"OOOOOOOo+ooOOOOOO..@@@@@XXXXXXXXXXX..###%%%%%%%%%%%%%%&&%###OOOO",
"OOOOOOOOOOOOOOOOOOO.@@@@@XXXXXXXXXXX....##%%%%%%%%%%%%%%%###OOOO",
"OOOOOOOOOOOOOOOOOOO.@@@@@XXXXXXXXXXXXXX..####%%%%%%%%%%%%%###OOO",
"OOOOOOOOOOOOOOOOOOOO.@@@@@@X................#%%%%%%%%%%%%%###OOO",
"OOOOOOOOOOOOOOOOOOOO.@@@@@@X................###%%%%%%%%%%%###OOO",
"OOOOOOOOOOOOOOOOOOOOO..@@@@..              ..##%%%%%%%%%%%%%#OOO",
"OOOOOOOOOOOOOOOOOOOOOOO.@@@..               ...##%%%%%%%%%%%#OOO",
"OOOOOOOOOOOOOOOOOOOOOOOO.@@..                  .##%%%%%%%%%%#OOO",
"OOOOOOOOOOOOOOOOOOOOOOOO.@@..                  ..###%%%%%%%%#OOO",
"OOOOOOOOOOOOOOOOOOOOOOOOO....                   ...#%%%%%%%%#OOO",
"OOOOOOOOOOOOOOOOOOOOOOOOOOO..                   ....#%%%%%%%#OOO",
"OOOOOOOOOOOOOOOOOOOOOOOOOOO..                   ....#%%%%%%%#OOO",
"OOOOOOOOOOOOOOOOOOOOOOOOOOO..                   ....#%%%%%%%#OOO",
"OOOOOOOOOOOOOOOOOOOOOOOOOOO..                   ....#%%%%%%%#OOO"
};
