/* XPM */
static char *_a84bdfd883741eee9df958749db55639RS4fLSpmUZRYxSo[] = {
/* columns rows colors chars-per-pixel */
"64 64 30 1 ",
"  c black",
". c #070F17",
"X c #281F19",
"o c #142233",
"O c #4B201C",
"+ c #55531E",
"@ c #656C17",
"# c #6B6E1A",
"$ c #73691D",
"% c #72751B",
"& c #787B21",
"* c #2F4157",
"= c #4E5F73",
"- c #B16D21",
"; c #987174",
": c #A37A7B",
"> c #7F8226",
", c #BDA158",
"< c #C6A27F",
"1 c #2F3699",
"2 c #B4B4B4",
"3 c #C9A582",
"4 c #CEA886",
"5 c #D1AA88",
"6 c #D8B586",
"7 c #EEC39A",
"8 c #F1C394",
"9 c #F6CA9F",
"0 c #F8CCA1",
"q c #9B86C2",
/* pixels */
"%%%%%%%%%%%%%%%%%%%%%%%%%%%%%%%%%%%%%%%%%%%%%%%%%%%%%%%%%%%%%%%%",
"%%%%%%%%%%%%%%%%%%%%%%%%%%%%%%%%%%%%%%%%%%%%%%%%%%%%%%%%%%%%%%%%",
"%%%%%%%%%%%%%%%%%%%%%%%%%%%%%%%%%%%%%%%%%%%%%%%%%%%%%%%%%%%%%%%%",
"%%%%%%%%%%%%%%%%%%%%%%%%%%%%%%XXXXX%%%%%%%%%%%%%%%%%%%%%%%%%%%%%",
"%%%%%%%%%%%%%%%%%%%%%%%%%%%XXXXXXXXXX%%%%%%%%%%%%%%%%%%%%%%%%%%%",
"%%%%%%%%%%%%%%%%%%%%%%%%%%%XXXXXXXXXX%%%%%%%%%%%%%%%%%%%%%%%%%%%",
"%%%%%%%%%%%%%%%%%%%%%%%%%%XXXXXXX0XXX%%%%%%%%%%%%%%%%%%%%%%%%%%%",
"%%%%%%%%%%%%%%%%%%%%%%%%%%XXXX<XX73XX%%%>%%%%%%%%%%%%%%%%%%%%%%%",
"%%%%%%%%%%%%%%%%%%%%%%%%%%XX:: 888 %%%%%&&%%%%%%%%%%%%%%%%%%%%%%",
"%%%%%%%%%%%%%%%%%%%%%%%%%%XX;;77776%>>&%@&%%%%%%%%%%%%%%%%%%%%%%",
"%%%%%%%%%%%%%%%%%%%%%%%%%%%XXX47775%%>&&@@%>>&%%%%%%%%%%%%%%%%%%",
"%%%%%%%%%%%%%%%%%%%%%%%%%+.......9...@&&%@&&>%%%%%%%%%%%%%%%%%%%",
"%%%%%%%%%%%%%%%%%%%%%%%%oooooo...:.ooo@&%&&&%%%%%%%%%%%%%%%%%%%%",
"%%%%%%%%%%%%%%%%%%%%%%%%oo**oooooooooo%@@&&@%%%%%%%%%%%%%%%%%%%%",
"%%%%%%%%%%%%%%%%%%%%%%%%oo***********o%%@@@%%%%%%%%%%%%%%%%%%%%%",
"%%%%%%%%%%%%%%%%%%%%%%%   **==***==**oo&&%%%%%%%%%%%%%%%%%%%%%%%",
"%%%%%%%%%%%%%%%%%%%%%%%o  o***===****oo>@%%%%%%%%%%%%%%%%%%%%%%%",
"%%%%%%%%%%%%%%%%%%%%%%oo   o******oooo   %%%%%%%%%%%%%%%%%%%%%%%",
"%%%%%%%%%%%%%%%%%%%%%%o*** oooooooo*** oo%%%%%%%%%   %%%%%%%%%%%",
"%%%%%%%%%%%%%%%%%%%%%%o*** *oo****o**  ooo%%%%%%%    %%%%%%%%%%%",
"%%%%%%%%%%%%%%%%%%%%ooo***  --,,,-o222***o%%%%       %%%%%%%%%%%",
"%%%%%%%%%%%%%%%%%%%%ooO***o-,,,,,-222 ***oo%%%     %%%%%%%%%%%%%",
"%%%%%%%%%%%%%%%%%%%oOOO***-,-------oo ****ooooo** %%%%%%%%%%%%%%",
"%%%%%%%%%%%%%%%%%%%oOO**-----------oo  ********** %%%%%%%%%%%%%%",
"%%%%%%%%%%%%%%%%%%ooOO**----------****ooo*****ooo %%%%%%%%%%%%%%",
"%%%%%%%%%%%%%%%%%%oO***o---------o****%ooo***oo%%%%%%%%%%%%%%%%%",
"%%%%%%%%%%%%%%%%%%oO***o%%----oooooooq%%%ooooo%%%%%%%%%%%%%%%%%%",
"%%%%%%%%%%%%%%%%%%oO***o%%oo*******oo1q%%%%%%%%%%%%%%%%%%%%%%%%%",
"%%%%%%%%%%%%%%%%%%oO**oo%%oo***oo****o1%%%%%%%%%%%%%%%%%%%%%%%%%",
"%%%%%%%%%%%%%%%%%%     %ooo****oo*****q11%%%%%%%%%%%%%%%%%%%%%%%",
"%%%%%%%%%%%%%%%%       %oo2 **********oqq%%%%%%%%%%%%%%%%%%%%%%%",
"%%%%%%%%%%%%%%%%    %%%%oo**  ********211q%%%%%%%%%%%%%%%%%%%%%%",
"%%%%%%%%%%%%%%%%    %%%%oo**  ********211q%%%%%%%%%%%%%%%%%%%%%%",
"%%%%%%%%%%%%%%%%   #%%%ooo**   ******  %%1%%%%%%%%%%%%%%%%%%%%%%",
"%%%%%%%%%%%%%%%%%%%%%%%o******   **   *%%%%%%%%%%%%%%%%%%%%%%%%%",
"%%%%%%%%%%%%%%%%%%%%%%%o****oo*  *   **%%%%%%%%%%%%%%%%%%%%%%%%%",
"%%%%%%%%%%%%%%%%%%%%%%%       *    ****%%%%%%%%%%%%%%%%%%%%%%%%%",
"%%%%%%%%%%%%%%%%%%%%%%% ****          *%%%%%%%%%%%%%%%%%%%%%%%%%",
"%%%%%%%%%%%%%%%%%%%%%%%o*******   o*** %%%%%%%%%%%%%%%%%%%%%%%%%",
"%%%%%%%%%%%%%%%%%%%%%%oo*******ooo****%%%%%%%%%%%%%%%%%%%%%%%%%%",
"%%%%%%%%%%%%%%%%%%%%%%oo****   oo**   %%%%%%%%%%%%%%%%%%%>%%%%%%",
"%%%%%%%%%%%%%%%%%%%%%%o****    oo*    %%%%%%%%%%%%%%>>&%%&&%%%%%",
"%%%%%%%%%%%%%%%%%%%%%%o***     oo     %%%%%%%%%%%%%%%>&&%@&%%>%%",
"%%%%%%%%%%%%%%%%%%%%%%o***     oo     %%%%%%%%%%%%%%%@&&&@%&&@%%",
"%%%%%%%%%%%>%%%%%%%%%%o****    oo*    %%%%%%%%%%%%%%>&@&&%%&&@%%",
"%%%%%%>>&%%&&%%%%%%%oo*****o**$oo*****%%%%%%%%%%%%%%@&&@&%%@@%%%",
"%%%%%%%>&&%@&%%>%%%%oo********$oo*****%%%%%%%%%%%%%%%@&@@%%%%%%%",
"%%%%%%%@&&&@%&&@%%%%oo********%oo*****%%%%%%%%%%%%%%%%%%%%%%%%%%",
"%%%%%%>&@&&%%&&@%%%#oo****=***%oo******%%%%%%%%%%%%%%%%%%%%%%%%%",
"%%%%%%@&&@&%%@@%%%%%oo**===*%%%ooo*****%%%%%%%%%%%%%%%%%%%%%%%%%",
"%%%%%%%@&@@%%%%%%%%%oo**==**%%%ooo*==**%%%%%%%%%%%%%%%%%%%%%%%%%",
"%%%%%%%%%%%%%%%%%%%%oo**==**%%ooo**==**%%%%%%%%%%%%%%%%%%%%%%%%%",
"%%%%%%%%%%%%%%%%%%%#oo******%%o***=****%%%%%%%%%%%%%%%%%%%%%%%%%",
"%%%%%%%%%%%%%%%%%%%%ooo*****%%o***=***%%%%%%%%%%%%%%%%%%%%%%%%%%",
"%%%%%%%%%%%%%%%%%%%%ooo*****%%o*******%%%%%%%%%%%%%%%%%%%%%%%%%%",
"%%%%%%%%%%%%%%%%%%%%ooo*****%%ooo****%%%%%%%%%%%%%%%%%%%%%%%%%%%",
"%%%%%%%%%%%%%%%%%%%%%%o****%%%%oo****%%%%%%%%%%%%%%%%%%%%%%%%%%%",
"%%%%%%%%%%%%%%%%%%%%%%oo***%%%%ooo***>>%%%%%%%%%%%%%%%%%%%%%%%%%",
"%%%%%%%%%%%%%%%%%%%%%%%    %%%%%%    %>&&%%%>>%%%%%%%%%%%%%%%%%%",
"%%%%%%%%%%%%%%%%%%%%%%      %%%       @&&%%&>%%%%%%%%%%%%%%%%%%%",
"%%%%%%%%%%%%%%%%%%%%%%        %        @@%&&&%%%%%%%%%%%%%%%%%%%",
"%%%%%%%%%%%%%%%%%%%%%%%%%%%%%%%%%%%%%%%%%%&&@%%%%%%%%%%%%%%%%%%%",
"%%%%%%%%%%%%%%%%%%%%%%%%%%%%%%%%%%%%%%%%%%@@%%%%%%%%%%%%%%%%%%%%",
"%%%%%%%%%%%%%%%%%%%%%%%%%%%%%%%%%%%%%%%%%%%%%%%%%%%%%%%%%%%%%%%%"
};
