/* XPM */
static char *_71093f533d74c33e41be0c445c6d740peNDkFzUDIgopJX9[] = {
/* columns rows colors chars-per-pixel */
"64 64 5 1 ",
"  c black",
". c #20282A",
"X c #263133",
"o c #2D4148",
"O c #405D66",
/* pixels */
"................................................................",
".XXXXXXXXXXXXXXXXXXXXXXXXXXXXXXXXXXXXXXXXXXXXXXXXXXXXXXXXXXXXXX.",
".XooooooooooooooooooooooooooooooooooooooooooooooooooooooooooooX.",
".Xo.......XXXXXXXooooOOOooooXXXXXXX.......XXXXXXXXXXXooooooOOoX.",
".Xo...   XXXXXXXooooOOOooooXXXXXXX.......XXXXXXXXXXXooo   OOOoX.",
".Xo...   XXXXXXooooOOOooooXXXXXXX.......XXXXXXXXXXXoooo   OOooX.",
".Xo.  ...  XXXooooOOOooooXXXXXXX.......XXXXXXXXXXXooo  ...  ooX.",
".Xo.  ...  XXooooOOOooooXXXXXXX.......XXXXXXXXXXXoooo  ...  ooX.",
".Xo.  ...  XooooOOOooooXXXXXXX.......XXXXXXXXXXXooooo  ...  ooX.",
".Xo.XX   XXooooOOOooooXXXXXXX.......XXXXXXXXXXXooooooOO   ooooX.",
".XoXXX   XooooOOOooooXXXXXXX.......XXXXXXXXXXXooooooOOO   ooooX.",
".XoXXXXXXooooOOOooooXXXXXXX.......XXXXXXXXXXXooooooOOOooooooXoX.",
".XoXXXXXooooOOOooooXXXXXXX.......XXXXXXXXXXXooooooOOOooooooXXoX.",
".XoXXXXooooOOOooooXXXXXXX.......XXXXXXXXXXXooooooOOOooooooXXXoX.",
".XoXXXooooOOOooooXXXXXXX.......XXXXXXXXXXXooooooOOOooooooXXXXoX.",
".XoXXooooOOOooooXXXXXXX.......XXXXXXXXXXXooooooOOOooooooXXXXXoX.",
".XoXooooOOOooooXXXXXXX.......XXXXXXXXXXXooooooOOOooooooXXXXXXoX.",
".XoooooOOOooooXXXXXXX.......XXXXXXXXXXXooooooOOOooooooXXXXXXXoX.",
".XooooOOOooooXXXXXXX.......XXXXXXXXXXXooooooOOOooooooXXXXXXXXoX.",
".XoooOOOooooXXXXXXX.......XXXXXXXXXXXooooooOOOooooooXXXXXXXXXoX.",
".XooOOOooooXXXXXXX.......XXXXXXXXXXXooooooOOOooooooXXXXXXXXXXoX.",
".XoOOOooooXXXXXXX.......XXXXXXXXXXXooooooOOOooooooXXXXXXXXXXXoX.",
".XoOOooooXXXXXXX.......XXXXXXXXXXXooooooOOOooooooXXXXXXXXXXX.oX.",
".XoOooooXXXXXXX.......XXXXXXXXXXXooooooOOOooooooXXXXXXXXXXX..oX.",
".XoooooXXXXXXX.......XXXXXXXXXXXooooooOOOooooooXXXXXXXXXXX...oX.",
".XooooXXXXXXX.......XXXXXXXXXXXooooooOOOooooooXXXXXXXXXXX....oX.",
".XoooXXXXXXX.......XXXXXXXXXXXooooooOOOooooooXXXXXXXXXXX.....oX.",
".XooXXXXXXX.......XXXXXXXXXXXooooooOOOooooooXXXXXXXXXXX......oX.",
".XoXXXXXXX.......XXXXXXXXXXXooooooOOOooooooXXXXXXXXXXX.......oX.",
".XoXXXXXX.......XXXXXXXXXXXooooooOOOooooooXXXXXXXXXXX.......XoX.",
".XoXXXXX.......XXXXXXXXXXXooooooOOOooooooXXXXXXXXXXX.......XXoX.",
".XoXXXX.......XXXXXXXXXXXooooooOOOooooooXXXXXXXXXXX.......XXXoX.",
".XoXXX.......XXXXXXXXXXXooooooOOOooooooXXXXXXXXXXX.......XXXXoX.",
".XoXX.......XXXXXXXXXXXooooooOOOooooooXXXXXXXXXXX.......XXXXXoX.",
".XoX.......XXXXXXXXXXXooooooOOOooooooXXXXXXXXXXX.......XXXXXXoX.",
".Xo.......XXXXXXXXXXXooooooOOOooooooXXXXXXXXXXX.......XXXXXXXoX.",
".Xo......XXXXXXXXXXXooooooOOOooooooXXXXXXXXXXX.......XXXXXXXooX.",
".Xo.....XXXXXXXXXXXooooooOOOooooooXXXXXXXXXXX.......XXXXXXXoooX.",
".Xo....XXXXXXXXXXXooooooOOOooooooXXXXXXXXXXX.......XXXXXXXooooX.",
".Xo...XXXXXXXXXXXooooooOOOooooooXXXXXXXXXXX.......XXXXXXXoooooX.",
".Xo..XXXXXXXXXXXooooooOOOooooooXXXXXXXXXXX.......XXXXXXXooooOoX.",
".Xo.XXXXXXXXXXXooooooOOOooooooXXXXXXXXXXX.......XXXXXXXooooOOoX.",
".XoXXXXXXXXXXXooooooOOOooooooXXXXXXXXXXX.......XXXXXXXooooOOOoX.",
".XoXXXXXXXXXXooooooOOOooooooXXXXXXXXXXX.......XXXXXXXooooOOOooX.",
".XoXXXXXXXXXooooooOOOooooooXXXXXXXXXXX.......XXXXXXXooooOOOoooX.",
".XoXXXXXXXXooooooOOOooooooXXXXXXXXXXX.......XXXXXXXooooOOOooooX.",
".XoXXXXXXXooooooOOOooooooXXXXXXXXXXX.......XXXXXXXooooOOOoooooX.",
".XoXXXXXXooooooOOOooooooXXXXXXXXXXX.......XXXXXXXooooOOOooooXoX.",
".XoXXXXXooooooOOOooooooXXXXXXXXXXX.......XXXXXXXooooOOOooooXXoX.",
".XoXXXXooooooOOOooooooXXXXXXXXXXX.......XXXXXXXooooOOOooooXXXoX.",
".XoXXXooooooOOOooooooXXXXXXXXXXX.......XXXXXXXooooOOOooooXXXXoX.",
".XoXXooooooOOOooooooXXXXXXXXXXX.......XXXXXXXooooOOOooooXXXXXoX.",
".XoXooooooOOOooooooXXXXXXXXXXX.......XXXXXXXooooOOOooooXXXXXXoX.",
".Xoooo   OOOooooooXXXXXXXXXXX.......XXXXXXXooooOOOooooX   XXXoX.",
".Xoooo   OOooooooXXXXXXXXXXX.......XXXXXXXooooOOOooooXX   XX.oX.",
".Xoo  ...  oooooXXXXXXXXXXX.......XXXXXXXooooOOOooooX  ...  .oX.",
".Xoo  ...  ooooXXXXXXXXXXX.......XXXXXXXooooOOOooooXX  ...  .oX.",
".Xoo  ...  oooXXXXXXXXXXX.......XXXXXXXooooOOOooooXXX  ...  .oX.",
".XooOO   ooooXXXXXXXXXXX.......XXXXXXXooooOOOooooXXXXXX   ...oX.",
".XoOOO   oooXXXXXXXXXXX.......XXXXXXXooooOOOooooXXXXXXX   ...oX.",
".XoOOooooooXXXXXXXXXXX.......XXXXXXXooooOOOooooXXXXXXX.......oX.",
".XooooooooooooooooooooooooooooooooooooooooooooooooooooooooooooX.",
".XXXXXXXXXXXXXXXXXXXXXXXXXXXXXXXXXXXXXXXXXXXXXXXXXXXXXXXXXXXXXX.",
"................................................................"
};
